!! 00000] TT[WS
!!!OTL: Jiujiu niao
!!!ARE: Asia, China, Shanxi Yanbei
!! Ethnic Group: Han
!! WII, 187
!!!SCT: J0684
!!!YEM: Copyright 1995, estate of Helmut Schaffrath.
**kern
*ICvox
*Ivox
*M2/4
*k[f#c#g#]
*A:
{8ee
8ee
4b
=1
8dd
4ff#
8ff#
=2
4ee
8dd
8ee
=3
8.b
16f#
4e}
=4
{8b
16b
16cc#
8ee
8ee
=5
8ff#
8r
4b
=6
8f#
16e
16f#
8g#
8f#
=7
2e}
==
!!!AGN: Xiaodiao. Sichun
!!!ONB: ESAC (Essen Associative Code) Database: CHINA
!!!AMT: simple duple
!!!AIN: vox
!!!EED: Helmut Schaffrath
!!!EEV: 1.0
*-
